fs/key_16_regular.svg

<svg viewBox="0 0 16 16" fill="none" xmlns="http://www.w3.org/2000/svg" height="1em" width="1em">
  <path d="M11 6C11.5523 6 12 5.55228 12 5C12 4.44772 11.5523 4 11 4C10.4477 4 10 4.44772 10 5C10 5.55228 10.4477 6 11 6Z" fill="#212121"/>
  <path d="M7.5 12V11.5H8.5C8.77614 11.5 9 11.2761 9 11V10H10C12.2091 10 14 8.20914 14 6C14 3.79086 12.2091 2 10 2C7.79086 2 6 3.79086 6 6C6 6.39211 6.05656 6.77171 6.16219 7.13071L2.29289 11C2.10536 11.1875 2 11.4419 2 11.7071V13C2 13.5523 2.44772 14 3 14H5C5.55229 14 6 13.5523 6 13V12.5H7C7.27614 12.5 7.5 12.2761 7.5 12ZM7 6C7 4.34315 8.34315 3 10 3C11.6569 3 13 4.34315 13 6C13 7.65685 11.6569 9 10 9H8.5C8.22386 9 8 9.22386 8 9.5V10.5H7C6.72386 10.5 6.5 10.7239 6.5 11V11.5H5.5C5.22386 11.5 5 11.7239 5 12V13H3V11.7071L7.08898 7.61813C7.22904 7.47807 7.27321 7.26854 7.20163 7.08386C7.07157 6.74835 7 6.38313 7 6Z" fill="#212121"/>
</svg>

<svg viewBox="0 0 16 16" fill="none" xmlns="http://www.w3.org/2000/svg" height="1em" width="1em">
  <path d="M11 6a1 1 0 1 0 0-2 1 1 0 0 0 0 2Z" fill="#212121"/>
  <path d="M7.5 12v-.5h1A.5.5 0 0 0 9 11v-1h1a4 4 0 1 0-3.838-2.87L2.292 11a1 1 0 0 0-.292.707V13a1 1 0 0 0 1 1h2a1 1 0 0 0 1-1v-.5h1a.5.5 0 0 0 .5-.5ZM7 6a3 3 0 1 1 3 3H8.5a.5.5 0 0 0-.5.5v1H7a.5.5 0 0 0-.5.5v.5h-1a.5.5 0 0 0-.5.5v1H3v-1.293l4.089-4.089a.5.5 0 0 0 .113-.534C7.072 6.748 7 6.384 7 6Z" fill="#212121"/>
</svg>
